!!! OTL: I-LA-LA
!!! YEC: Copyright 2001, Chia-wei Lee
!! FOr Voice Only, Duet
!! [Allegretto]	
**kern	**kern	**silbe
*clefG2	*clefG2	*LXhinhua
*A:	*A:	*ping-ying
*M4/4	*M4/4	*
=3	=3	=3
8a	8e	Chei/
8a	8e	Jia-
8cc#	8a	Yan/
8cc#	8a	Li^
8g#	8g#	Yi-
8g#	8g#	Duo^
4cc#	4a	Hua-
=4	=4	=4
(8a	4e	I-
8cc#)	.	|
(8b	4d	La-
8g#)	.	|
2a	2c#	La
=5	=5	=5
8a	8e	Mei/
8a	8e	Mao/
8dd	8b	Xi\
8dd	8b	Chang/
8b	8g#	Yien^
8b	8g#	Jin-
4cc#	4a	Da\
=6	=6	=6
(8a	4e	I-
8cc#)	.	|
(8b	4e	La
8g#)	.	|
2a	2c#	La
=7	=7	=7
8ee	8cc#	Duo-
8ee	8cc#	Qing/
8ff#	8dd	Mei/
8ff#	8dd	Shao-
8ee	8cc#	Zei\
8ee	8cc#	Dong\
4ee	4cc#	Ren/
=8	=8	=8
4ee	4cc#	Ah-
4ff#	4f#	Ah-
4ee	4cc#	Ah-
4ff#	4f#	AH-
=9	=9	=9
8dd	8b	Mei^
8dd	8b	Li\
8b	8b	Yen^
8dd	8b	Jin-
8cc#	8a	Huei\
8cc#	8a	Shuo-
4b	(8g#	Hua\
.	8f)#	|
=10	=10	=10
(8a	4e	I-
8cc#)	.	|
(8b	4d	La
8g#)	.	|
2a	2c#	La
*-	*-	*-
